!!!SOCIAL_FUNCTION:	songs connected with ceremonies
!!!PDT:	1929
!!!OTL: No_101_We_are_Making_Wonderful_Things.krn
!!!REG: Southwest
!!!LANG: Non-Tone
!!!LING_GROUP: Uto-Aztecan
**kern
*staff1
*clefF4
*k[f#]
*M2/4
8B\
=1
8B\L
8A\J
8B\L
8A\J
=2||
*M3/4
4.B\
8A\
8G\L
8E\J
=3
4G\
8E\L
8D\J
8r
8A\
=4
*M2/4
4A\
8G\L
8E\J
=5||
*M3/4
2E\
8F#\L
8D\J
=6
4E\
4D\
16BB/
16r
8E\
=7
8E\L
8E\J
4E\
8E\L
8D\J
=8
4E\
4E\
4D\
=9||
*M2/4
8E\L
8D\J
8BB/L
(8D/J
=10||
*M3/4
2D\)
16BB/LL
16AA/JJ
8r
=11
8E\L
8E\J
4E\
4D\
=12
8E\L
8E\J
8E\L
8D\J
8E\L
8E\J
=13||
*M2/4
2E\
=14
4.r
8A\
=15
4A\
8F#\L
8E\J
=16
4E\
8F#\L
8E\J
=17
4.E\
8D\
=18||
*M3/4
4E\
4D\
16BB/LL
16AA/JJ
8r
=19
2E\
8F#\L
8D\J
=20||
*M2/4
4E\
8D/L
8BB/J
=21||
*M3/4
4.E\
8D\
4E\
=22
2.E\
==
*-
